Numix-GalliumOS/16/mimetypes/text-x-pascal.svg

<?xml version="1.0" encoding="UTF-8" standalone="no"?>
<svg
   xmlns:dc="http://purl.org/dc/elements/1.1/"
   xmlns:cc="http://creativecommons.org/ns#"
   xmlns:rdf="http://www.w3.org/1999/02/22-rdf-syntax-ns#"
   xmlns:svg="http://www.w3.org/2000/svg"
   xmlns="http://www.w3.org/2000/svg"
   xmlns:sodipodi="http://sodipodi.sourceforge.net/DTD/sodipodi-0.dtd"
   xmlns:inkscape="http://www.inkscape.org/namespaces/inkscape"
   width="16"
   height="16"
   viewBox="0 0 16 16"
   id="svg2"
   version="1.1"
   inkscape:version="0.91 r13725"
   sodipodi:docname="text-x-pascal.svg">
  <metadata
     id="metadata30">
    <rdf:RDF>
      <cc:Work
         rdf:about="">
        <dc:format>image/svg+xml</dc:format>
        <dc:type
           rdf:resource="http://purl.org/dc/dcmitype/StillImage" />
        <dc:title />
      </cc:Work>
    </rdf:RDF>
  </metadata>
  <defs
     id="defs28" />
  <sodipodi:namedview
     pagecolor="#ffffff"
     bordercolor="#666666"
     borderopacity="1"
     objecttolerance="10"
     gridtolerance="10"
     guidetolerance="10"
     inkscape:pageopacity="0"
     inkscape:pageshadow="2"
     inkscape:window-width="1366"
     inkscape:window-height="718"
     id="namedview26"
     showgrid="false"
     inkscape:zoom="1"
     inkscape:cx="0.5461957"
     inkscape:cy="7.3778651"
     inkscape:window-x="0"
     inkscape:window-y="25"
     inkscape:window-maximized="1"
     inkscape:current-layer="svg2">
    <inkscape:grid
       type="xygrid"
       id="grid3336" />
  </sodipodi:namedview>
  <path
     style="fill:#f7ce6b;fill-opacity:1"
     d="M 2.667969,-4.4634e-4 C 2.324219,-4.4634e-4 2,0.33781166 2,0.6964464 L 2,15.303108 C 2,15.641365 2.34375,16 2.667969,16 l 10.664062,0 C 13.65625,16 14,15.641365 14,15.303108 L 14,3.9995535 10,-4.4634e-4 z"
     id="path4-9"
     inkscape:connector-curvature="0"
     sodipodi:nodetypes="ssssssccs" />
  <path
     style="fill:#000000;fill-opacity:0.19599998"
     d="m 10.583223,3.3315845 0.0154,0.01953 0.04005,-0.01953 z m 0.02978,0.667969 3.387,3.664062 0,-3.664062 z"
     id="path6-9"
     inkscape:connector-curvature="0"
     sodipodi:nodetypes="cccccccc" />
  <path
     style="fill:#ffffff;fill-opacity:0.39200003"
     d="m 10,-4.4634e-4 3.996396,3.99999984 -3.383784,0 C 10.313513,3.9995535 10,3.6824365 10,3.3833375 z"
     id="path8-0"
     inkscape:connector-curvature="0"
     sodipodi:nodetypes="ccssc" />
  <path
     style="fill:#555555;fill-opacity:1;fill-rule:nonzero;stroke:none"
     d="M 6.3606809,12.745751 C 5.8867538,12.501681 5.515564,11.851336 5.7639578,11.34514 5.9735169,10.918083 6.6871449,10.801299 6.7243089,10.258352 6.7594779,9.7445233 7.1651347,9.3246813 7.6792996,9.3207013 c 0.5388529,-0.0042 1.1828547,-0.06872 1.5815601,0.354976 0.3061524,0.3253357 0.2194213,1.0654987 0.6950315,1.2350687 0.4094578,0.145985 0.7706988,0.55593 0.6715348,1.053972 -0.104788,0.526281 -0.543133,0.819243 -1.0372308,0.89293 -1.0745045,0.160248 -2.1912449,0.255997 -3.2275014,-0.110221 M 4.5753817,10.145405 C 4.0406129,9.7723163 3.9799333,9.0431763 4.0045031,8.4280823 c 0.00912,-0.227771 0.01156,-1.006988 0.1793547,-0.789925 0.1702609,0.220256 0.1255373,0.39749 0.4692457,0.332916 0.5210836,-0.09789 0.7178609,0.671116 1.12154,0.972844 0.3625779,0.271008 0.350581,0.970089 -0.094614,1.2009577 -0.3435472,0.178158 -0.7703565,0.202579 -1.1021529,-0.0023 m 5.8109584,-0.03137 C 9.9068241,9.9146213 9.9099423,9.1998853 10.32437,8.8921793 c 0.385793,-0.286448 0.532101,-0.962138 1.151609,-0.898759 0.184854,0.01892 0.150668,-0.894163 0.302406,-0.437294 0.156844,0.472242 0.180959,0.985785 0.218306,1.48037 0.04073,0.539378 -0.297162,1.1556847 -0.866653,1.2323437 -0.256011,0.03446 -0.528949,-0.005 -0.742086,-0.159727 M 6.4202636,7.9917203 C 5.8496049,7.7104673 5.7338675,6.8580563 6.0969134,6.3665933 6.3969583,5.9604183 6.2987676,5.2054696 6.7184294,5.0110692 6.9617151,4.8983719 6.5410596,5.6834143 7.0082898,5.7250043 c 0.6616938,0.05889 0.3021205,0.818984 0.5245027,1.231482 0.2511333,0.465831 0.1580284,1.102343 -0.4246774,1.164884 -0.2335777,0.02507 -0.4876884,0.006 -0.6879337,-0.129317 m 1.9709369,-0.05097 c -0.3561307,-0.25697 -0.2043485,-0.744613 -0.1114142,-1.098941 0.095866,-0.365515 -0.2103889,-1.168248 0.3078871,-1.138889 0.6106471,0.03459 0.078472,-0.7780919 0.3096422,-0.6954914 0.4447356,0.1589142 0.4445223,0.9313684 0.7801752,1.3375674 0.3348504,0.405225 0.3821164,1.139668 -0.053764,1.527116 -0.3444489,0.306173 -0.8564667,0.285331 -1.2342143,0.06853"
     id="path53"
     inkscape:connector-curvature="0"
     sodipodi:nodetypes="csssssssccsssssccsssssccsssssccsssssc" />
</svg>

<svg xmlns="http://www.w3.org/2000/svg" viewBox="0 0 16 16">
 <path d="m 2.668 0 c -0.344 0 -0.668 0.338 -0.668 0.697 l 0 14.607 c 0 0.338 0.344 0.697 0.668 0.697 l 10.664 0 c 0.324 0 0.668 -0.359 0.668 -0.697 l 0 -11.304 -4 -4 z" style="fill:#f7ce6b;fill-opacity:1"/>
 <path d="m 10.583 3.332 0.015 0.02 0.04 -0.02 z m 0.03 0.668 3.387 3.664 0 -3.664 z" style="fill:#000;fill-opacity:0.196"/>
 <path d="m 10 0 3.996 4 -3.384 0 c -0.299 0 -0.613 -0.317 -0.613 -0.616 z" style="fill:#fff;fill-opacity:0.392"/>
 <path d="m 6.361 12.746 c -0.474 -0.244 -0.845 -0.894 -0.597 -1.401 0.21 -0.427 0.923 -0.544 0.96 -1.087 0.035 -0.514 0.441 -0.934 0.955 -0.938 c 0.539 -0.004 1.183 -0.069 1.582 0.355 0.306 0.325 0.219 1.065 0.695 1.235 0.409 0.146 0.771 0.556 0.672 1.054 -0.105 0.526 -0.543 0.819 -1.037 0.893 -1.075 0.16 -2.191 0.256 -3.228 -0.11 m -1.787 -2.602 c -0.535 -0.373 -0.595 -1.102 -0.571 -1.717 c 0.009 -0.228 0.012 -1.01 0.179 -0.79 0.17 0.22 0.126 0.397 0.469 0.333 0.521 -0.098 0.718 0.671 1.122 0.973 0.363 0.271 0.351 0.97 -0.095 1.201 -0.344 0.178 -0.77 0.203 -1.102 -0.002 m 5.811 -0.031 c -0.482 -0.197 -0.479 -0.911 -0.064 -1.219 c 0.386 -0.286 0.532 -0.962 1.152 -0.899 0.185 0.019 0.151 -0.894 0.302 -0.437 0.157 0.472 0.181 0.986 0.218 1.48 0.041 0.539 -0.297 1.156 -0.867 1.232 -0.256 0.034 -0.529 -0.005 -0.742 -0.16 m -3.968 -2.117 c -0.571 -0.281 -0.686 -1.134 -0.323 -1.625 0.3 -0.406 0.202 -1.161 0.622 -1.356 0.243 -0.113 -0.177 0.672 0.29 0.714 c 0.662 0.059 0.302 0.819 0.525 1.231 0.251 0.466 0.158 1.102 -0.425 1.165 -0.234 0.025 -0.488 0.006 -0.688 -0.129 m 1.971 -0.051 c -0.356 -0.257 -0.204 -0.745 -0.111 -1.099 0.096 -0.366 -0.21 -1.168 0.308 -1.139 0.611 0.035 0.078 -0.778 0.31 -0.695 0.445 0.159 0.445 0.931 0.78 1.338 0.335 0.405 0.382 1.14 -0.054 1.527 -0.344 0.306 -0.856 0.285 -1.234 0.069" style="fill:#555;fill-opacity:1;stroke:none;fill-rule:nonzero"/>
</svg>
